packages/katcn/src/icons/svg/userConfirm-solid.svg

<svg width="24" height="25" viewBox="0 0 24 25" fill="none" xmlns="http://www.w3.org/2000/svg">
<path d="M12.4 22.1761C12.2 21.8761 12 21.6761 11.9 21.3761C11.4 20.4761 11.2 19.4761 11.2 18.4761C11.2 16.9761 11.8 15.5761 12.7 14.4761C12.9 14.2761 13 14.0761 13.2 13.9761C13.2 13.8761 13.7 13.5761 14 13.3761C15.8 12.2761 16.9 10.2761 16.7 8.17608C16.6 7.37608 16.4 6.67608 16.1 6.17608C15.3 4.67608 13.9 3.57608 12.2 3.27608C8.59999 2.57608 5.39999 5.27608 5.39999 8.77608C5.39999 10.6761 6.29998 12.2761 7.69999 13.2761C5.19999 14.1761 3.19999 16.0761 2.09999 18.5761C1.69999 19.5761 1.79999 20.6761 2.39999 21.5761C3.19999 22.3761 4.19999 22.9761 5.39999 22.9761H13.2C12.9 22.6761 12.6 22.4761 12.4 22.1761Z" fill="black"/>
<path d="M21.6 16.4761C21.4 15.9761 21 15.4761 20.6 15.0761C19.8 14.2761 18.6 13.7761 17.4 13.7761C17 13.7761 16.5 13.8761 16.1 13.9761C15.8 14.0761 15.4 14.1761 15.1 14.3761C14.8 14.4761 14.6 14.6761 14.3 14.8761C13.3 15.6761 12.7 16.9761 12.7 18.3761C12.7 19.4761 13.1 20.4761 13.8 21.2761C14.1 21.5761 14.4 21.8761 14.7 22.0761C15.4 22.5761 16.2 22.8761 17 22.8761C17.1 22.8761 17.2 22.8761 17.3 22.8761C19.8 22.8761 21.9 20.7761 21.9 18.2761C22 17.6761 21.8 17.0761 21.6 16.4761Z" fill="black"/>
<path d="M22.1 14.6761C21.9 14.4761 21.5 14.3761 21.2 14.5761C21.1 14.5761 21 14.6761 20.9 14.7761L20.6 15.1761L19.1 16.8761L18.5 17.4761L17.9 18.0761L17.4 18.6761L16.5 17.6761C16.2 17.3761 15.7 17.2761 15.3 17.5761C15 17.8761 14.9 18.3761 15.2 18.7761L16.7 20.4761C16.9 20.6761 17.1 20.7761 17.3 20.7761C17.5 20.7761 17.8 20.6761 17.9 20.4761L18.4 19.9761L19.2 19.0761L19.8 18.3761L21.5 16.4761L22.1 15.8761C22.5 15.4761 22.4 14.9761 22.1 14.6761Z" fill="white"/>
</svg>

<svg xmlns="http://www.w3.org/2000/svg" fill="none" viewBox="0 0 24 25"><path fill="#000" d="M12.4 22.176c-.2-.3-.4-.5-.5-.8-.5-.9-.7-1.9-.7-2.9 0-1.5.6-2.9 1.5-4 .2-.2.3-.4.5-.5 0-.1.5-.4.8-.6 1.8-1.1 2.9-3.1 2.7-5.2-.1-.8-.3-1.5-.6-2-.8-1.5-2.2-2.6-3.9-2.9-3.6-.7-6.8 2-6.8 5.5 0 1.9.9 3.5 2.3 4.5-2.5.9-4.5 2.8-5.6 5.3-.4 1-.3 2.1.3 3 .8.8 1.8 1.4 3 1.4h7.8c-.3-.3-.6-.5-.8-.8"/><path fill="#000" d="M21.6 16.476c-.2-.5-.6-1-1-1.4-.8-.8-2-1.3-3.2-1.3-.4 0-.9.1-1.3.2-.3.1-.7.2-1 .4-.3.1-.5.3-.8.5-1 .8-1.6 2.1-1.6 3.5 0 1.1.4 2.1 1.1 2.9.3.3.6.6.9.8.7.5 1.5.8 2.3.8h.3c2.5 0 4.6-2.1 4.6-4.6.1-.6-.1-1.2-.3-1.8"/><path fill="#fff" d="M22.1 14.676c-.2-.2-.6-.3-.9-.1-.1 0-.2.1-.3.2l-.3.4-1.5 1.7-.6.6-.6.6-.5.6-.9-1c-.3-.3-.8-.4-1.2-.1-.3.3-.4.8-.1 1.2l1.5 1.7q.3.3.6.3c.2 0 .5-.1.6-.3l.5-.5.8-.9.6-.7 1.7-1.9.6-.6c.4-.4.3-.9 0-1.2"/></svg>
